!!!!SEGMENT: pl-kk--kk-i-10--008-005_pekiel-bartlomiej--missa-benedictus.krn
!!!cenid: 16xx:1199
!!!COM: Pękiel, Bartłomiej
!!!COM-rismID: pe30105642
!!!CDT: <1633-~1670
!!!CNT: Polish
!!!OPR: Missa
!!!OTL: Benedictus
!!!OMV: 005
!!!PDT:
!!!AGN: Sacred; Mass
!!!YEC: Copyright 2022 Narodowy Instytut Fryderyka Chopina (https://polishscores.org)
!!!YEM: License CC-BY-4.0 (https://creativecommons.org/licenses/by/4.0)
!!!SMS-siglum: PL-Kk
!!!SMS-shelfmark: Kk.I.10
!!!SMS-shelfwork: 008-005 M
!!!SMS-variant:
!!!SMS-altvar:
!!!NIFC-rismSourceID: 1001151827
!!!NIFC-rismChildID: 1001153818
!!!NIFC-islandoraID: pl-kk:2434
!!!URL-pdf-islandora: https://repozytorium.nifc.pl/islandora/object/pl-kk%3A2434/datastream/PDF/view
!!!URL-scan: https://polish.musicsources.pl/pl/lokalizacje/galeria/rekopisy/5737 @EN{Scan on Polish Music Sources Website} @PL{Skany w portalu Dziedzictwo Muzyki Polskiej w otwartym dostępie}
!!!IIIF:
!!!ONB-nifc: UWAGA: części Mszy: 1. Kyrie, 2. Et in terra, 3. Patrem, 4. Sanctus, 5. Benedictus, 6. Agnus Dei. T1 (0015-0019), T2 (0065-0069), B (0114-0118).
!!!AIN: 2 empty 1 tenor
!!!key:
**kern	**text	**kern	**text	**kern	**text
*part3	*	*part2	*	*part1	*
*staff3	*	*staff2	*	*staff1	*
*Iempty	*	*Itenor	*	*Iempty	*
*I"Basssus.	*	*I"2do Tenore	*	*I"Primus	*
*I'B	*	*I'T 2	*	*I'1	*
*clefF4	*	*clefC4	*	*clefC4	*
*k[]	*	*k[]	*	*k[]	*
*G:	*	*G:	*	*G:	*
*M2/1	*	*M2/1	*	*M2/1	*
*met(C|)	*	*met(C)	*	*met(C|)	*
!!LO:TX:t=P:problem:, jako rozdzielacz słów na 1 linii
=1-	=1-	=1-	=1-	=1-	=1-
4.G\	Be-	4.B\	Be-	4.d\	Be-
8G\	-ne-	8B\	-ne-	8d\	-ne-
4c\	-di-	4c\	-di-	4.e\	-di-
4B\	.	8c\	-ctus	.	.
.	.	8d\	qui	8d\	.
*2\right	*	*	*	*2\right	*
2A\	.	4e\	ve-	2c\	.
.	.	8d\L	.	.	.
.	.	8c\J	.	.	.
2G\	-ctus	4d,<\	-nit	4B\	-ctus
*	*	*custos:e	*	*	*
.	.	4d\	qui	4B\	qui
=2-	=2-	=2-	=2-	=2-	=2-
!	!	!LO:LB:g=original	!	!	!
2E\	qui	4.e\	ve-	4.c\	ve-
.	.	8d\L	.	8B\	.
4.F\	ve-	8c\	.	2A/	.
.	.	8B\J	.	.	.
*	*	*2\right	*	*	*
.	.	2c\	.	.	.
8E\L	.	.	.	.	.
8D\	.	.	.	2d\	.
8C\J	.	.	.	.	.
4D/	.	4B\	.	.	.
2C/	-nit	2c\	-nit	4G/	-nit
.	.	.	.	4c\	qui
=3-	=3-	=3-	=3-	=3-	=3-
*	*Xij	*	*	*	*
4.D/	Be-	1r	.	4A/	ve-
.	.	.	.	8B/L	.
8D/	-ne-	.	.	8A/	.
4.E\	-di-	.	.	8G/	.
.	.	.	.	8A/J	.
.	.	.	.	2B\	.
*custos:C	*	*	*	*	*
8D/	.	.	.	.	.
!LO:LB:g=original	!	!	!	!	!
2C/	.	4r	.	.	.
*	*	*	*ij	*	*
.	.	2e\	ve-	4A/	.
2BB/	-ctus	.	.	2B\	-nit
*	*Xij	*	*	*	*
!	!	!LO:TX:a:t=P:problem=# above	!	!	!
.	.	4d#X\	.	.	.
=4-	=4-	=4-	=4-	=4-	=4-
*	*	*	*	*custos:c	*
4r	.	1e	-nit	2r	.
4E\	qui	.	.	.	.
!	!	!	!	!LO:LB:g=original	!
8C/L	ve-	.	.	4c\	qui
8D/	.	.	.	.	.
8E/	.	.	.	8G/L	ve-
8F/J	.	.	.	8A/	.
4G\	.	4B\	qui	8B/	.
.	.	.	.	8c/J	.
4F\	.	4A\	.	2d\	.
2E\	.	2e\	ve-	.	.
!	!	!	!	!LO:TX:a:t=P:problem=# above	!
.	.	.	.	4c#X\	.
=5-	=5-	=5-	=5-	=5-	=5-
1D	-nit	2A/	-nit	1d	-nit
*	*	*	*Xij	*	*
.	.	4r	.	.	.
.	.	4A/	in	.	.
2r	.	4.c\	no-	1r	.
.	.	8c\	-mi-	.	.
2E\	in	4B\	-ne	.	.
.	.	2e\	Do-	.	.
=6-	=6-	=6-	=6-	=6-	=6-
4.F\	no-	.	.	4A/	in
.	.	4dny\	.	4.A/	no-
8F\	-mi-	.	.	.	.
4E\	-ne	4c\	.	.	.
.	.	.	.	8A/	-mi-
4E\	in	4B\	-mi-	4G#X/	-ne
4.A\	no-	2c,<\	-ni	8A/L	Do-
.	.	.	.	8B/J	.
.	.	.	.	2cny\	.
8G\	-mi-	.	.	.	.
8F\	-ne	2d\	in	.	.
*	*ij	*	*	*	*
8F\	in	.	.	.	.
8G\L	no-	.	.	4B\	-mi-
8E\J	.	.	.	.	.
=7-	=7-	=7-	=7-	=7-	=7-
8E\L	.	4.e\	no-	4c\	-ni
8D\	.	.	.	.	.
8C\	.	.	.	4Gny/	in
8BB\J	.	8d\	.	.	.
!LO:LB:g=original	!	!	!	!	!
4.AA/	.	4.c\	.	4.A/	no-
8AA/	-mi-	8c\	-mi-	8A/	-mi-
!	!	!LO:PB:g=original	!	!	!
4GG/	-ne	4B\	-ne	4d\	-ne
*	*Xij	*	*	*	*
2G\	Do-	8G\L	Do-	8d\L	Do-
.	.	8A\	.	8c\J	.
.	.	8B\	.	4B\	.
.	.	8c\J	.	.	.
4F\	.	2d\	.	4A/	.
=8-	=8-	=8-	=8-	=8-	=8-
2.E\	.	.	.	2.e\	.
!	!	!LO:TX:a:t=P:problem=# above	!	!	!
.	.	8c#X\L	.	.	.
.	.	8B\J	.	.	.
.	.	4.c#\	.	.	.
4E\	-mi-	.	.	4e\	-mi-
.	.	8c#\	-mi-	.	.
2D/	-ni	1d	-ni	4A/	-ni
.	.	.	.	4A/	in
!	!	!	!	!LO:PB:g=original	!
2D/	O-	.	.	4.d\	no-
.	.	.	.	8c\	-mi-
=9-	=9-	=9-	=9-	=9-	=9-
4.G\	-ſan-	1r	.	4B\	-ne
.	.	.	.	8G\L	Do-
8F\	.	.	.	8A\	.
4E\	-na	.	.	8B\	.
.	.	.	.	8c\	.
4D/	in	.	.	8d\	.
.	.	.	.	8B\J	.
!	!	!	!	!LO:TX:a:t=P:problem=# above	!
4A\	ex-	2r	.	4c#X\	.
4B-X\	.	.	.	2d\	.
2A\	-cel-	4r	.	.	.
.	.	4G/	O-	4c#\	-mi-
=10-	=10-	=10-	=10-	=10-	=10-
4D,</	-sis	4.d\	-san-	2d\	-ni
4D/	O-	.	.	.	.
.	.	8cny\	.	.	.
4.G\	-san-	4B\	-na	2r	.
.	.	4B\	in	.	.
8G\	-na	.	.	.	.
4F#X\	in	4d\	ex-	2r	.
4A\	ex-	4c\	.	.	.
2E\	-cel-	2B\	-cel-	4B\	O-
.	.	.	.	4.e\	-san-
=11-	=11-	=11-	=11-	=11-	=11-
!LO:PB:g=original	!	!LO:TX:a:t=P:problem=# above	!	!	!
2AA/	-sis	2c#X\	-sis	.	.
.	.	.	.	8d\L	.
!	!	!	!	!LO:TX:a:t=P:problem=# above	!
.	.	.	.	8c#X\	.
.	.	.	.	8B\J	.
*	*ij	*	*	*	*
!	!	!	!	!LO:TX:a:t=P:problem=# above	!
2AA/	O-	2r	.	2c#X\	.
4.D/	-san-	2r	.	4d\	-na
*	*	*	*	*	*ij
.	.	.	.	4A/	O-
8C/	-na	.	.	.	.
*	*	*	*ij	*	*
4BB/	in	4G/	O-	4B\	-san-
4FF#X/	ex-	8d\L	.	4A/	-na
*	*	*	*	*	*Xij
.	.	8cny\J	.	.	.
=12-	=12-	=12-	=12-	=12-	=12-
1GG	-cel-	4B\	-san-	4G/	in
.	.	4c\	-na	4A/	ex-
!	!	!	!	!LO:LB:g=original	!
.	.	8d\L	in	8B/L	-cel-
.	.	8B\	.	8G/	.
.	.	8c\	.	8A/	.
.	.	8d\J	.	8B/J	.
!	!	!LO:LB:g=original	!	!	!
1C	.	4e\	.	4cny\	.
.	.	4d\	ex-	4B\	.
.	.	2.c\	-cel-	4A/	.
.	.	.	.	4G/	.
=13-	=13-	=13-	=13-	=13-	=13-
1D	.	.	.	4F#X/	.
.	.	4B\	.	2G/	.
.	.	2A\	.	.	.
.	.	.	.	4F#/	.
!LO:N:vis=0	!	!LO:N:vis=0	!	!LO:N:vis=0	!
1GG;	-sis	1B;<	-sis	1G;	sis
*	*Xij	*	*Xij	*	*
=-	=-	=-	=-	=-	=-
*-	*-	*-	*-	*-	*-
!!!system-decoration: [(s1,s2,s3)]
!!!RDF**kern: < = below
!!!RDF**kern: > = above
!!!ENC: Marta Chmielewska
!!!END: 2021-07-06
!!!ENC: Marcin Jachim
!!!END: 2021-06-25
